Gruvbox-Material-Icons/actions/16/stroke-join-bevel.svg

<svg width="16" height="16" version="1.1" xmlns="http://www.w3.org/2000/svg">
  <defs>
    <style id="current-color-scheme" type="text/css">.ColorScheme-Text { color:#ebdbb2; } .ColorScheme-Highlight { color:#458588; }</style>
  </defs>
  <path class="ColorScheme-Text" d="m5 1-4 4v10h4v-10h10v-4z" fill="currentColor"/>
  <path class="ColorScheme-Text" d="m5 5h10v10h-10z" fill="currentColor" opacity=".3"/>
</svg>

<svg xmlns="http://www.w3.org/2000/svg" width="16" height="16" version="1.1">
 <defs>
  <style id="current-color-scheme" type="text/css">
   .ColorScheme-Text { color:#ebdbb2; } .ColorScheme-Highlight { color:#458588; }
  </style>
 </defs>
 <path style="fill:currentColor" class="ColorScheme-Text" d="M 5,1 1,5 V 15 H 5 V 5 H 15 V 1 Z"/>
 <path style="opacity:.30;fill:currentColor" class="ColorScheme-Text" d="M 5,5 H 15 V 15 H 5 Z"/>
</svg>
